X: 1
T: Hounds Of Letterfrack
M: 4/4
L: 1/8
R: reel
K: Gmaj
|:G3B dGBd|eGce dcBA|FG3 BGAB|cE3 GEDE|
G2eG dGBd|edce dcAB|cE3 GECE|1DFAc BGAF:|2DFAc BGGA||
|:Bd3 edgd|edgd egdc|Bd3 edgd|eaag fedc|
BcdB c3E|E2cE D2BD|cE3 GECE|1DFAc BGGA:|2DFAc BGGF||
